outputs/icons/action/zoom_out_round.svg

<svg xmlns="http://www.w3.org/2000/svg" width="1200" height="1200" fill="none"><g clip-path="url(#a)"><path fill="#000" d="m725.005 650.005-3.5 36.5c60-70 91-165.5 74-266.998-23.5-139-139.5-250-279.5-267-211.498-26-389.498 152-363.498 363.498 17 140 128 256 267 279.5 101.498 17 196.998-14 266.998-74l-36.5 3.5 263 262.5c20.5 20.5 53.5 20.5 74 0l.5-.5c20.5-20.5 20.5-53.5 0-74zm-249.998 50c-124.5 0-225-100.5-225-224.998 0-124.5 100.5-225 225-225 124.498 0 224.998 100.5 224.998 225 0 124.498-100.5 224.998-224.998 224.998m-100-249.998h199.998c14 0 25 11 25 25s-11 24.998-25 24.998H375.007c-14 0-25-10.998-25-24.998s11-25 25-25"/></g><defs><clipPath id="a"><path fill="#fff" d="M0 0h1200v1200H0z"/></clipPath></defs></svg>

<svg width="1200" height="1200" viewBox="0 0 1200 1200" fill="none" xmlns="http://www.w3.org/2000/svg"><g clip-path="url(#clip0_223_1884)"><path d="M725.005 650.005L721.505 686.505C781.505 616.505 812.505 521.005 795.505 419.507C772.005 280.507 656.005 169.507 516.005 152.507C304.507 126.507 126.507 304.507 152.507 516.005C169.507 656.005 280.507 772.005 419.507 795.505C521.005 812.505 616.505 781.505 686.505 721.505L650.005 725.005L913.005 987.505C933.505 1008.005 966.505 1008.005 987.005 987.505L987.505 987.005C1008.005 966.505 1008.005 933.505 987.505 913.005L725.005 650.005ZM475.007 700.005C350.507 700.005 250.007 599.505 250.007 475.007C250.007 350.507 350.507 250.007 475.007 250.007C599.505 250.007 700.005 350.507 700.005 475.007C700.005 599.505 599.505 700.005 475.007 700.005ZM375.007 450.007H575.005C589.005 450.007 600.005 461.007 600.005 475.007C600.005 489.007 589.005 500.005 575.005 500.005H375.007C361.007 500.005 350.007 489.007 350.007 475.007C350.007 461.007 361.007 450.007 375.007 450.007Z" fill="#1D1E23"/></g><defs><clipPath id="clip0_223_1884"><path width="24" fill="white" d="M0 0H1200V1200H0V0z"/></clipPath></defs></svg>
